X: 1
T: Cruit Mo Cridh
T: 8x32R 3C (John Bowie Dickson, Montreal Moments)
P: Alexander Small Reel
C: by Muriel Johnstone
R: reel
C: from Laura Risk/Les Joueurs de Bon Accord
C: arr. T. Traub 6-30-2012
M: 4/4
L: 1/8
K: F
AB|"F"c2 f2 FAcf|"Bb"B2 g2 GABd|"F"c2 de fdcA|"Gm"B2 G2 "C"GdcB|"F"A2 f2 FAcf|"Bb"B2 g2 "C"GABd|"C"c2 de fdcB|"F"A2 F2 F2 ||
c2|"F"f2 > e2 dfed|"C"e2 ed c2 de|"Dm"f2 fe "G"dagf|"C"e2 c2 c2 g2|"F"f2 > e2 dfed|"F"cAfA "C"GABd|"F"c2 f2 "C"gebg|"F"a2 f2 f2 |]
